tenants/vtwonen/icons/shopping_cart.svg

<svg fill="none" height="24" viewBox="0 0 24 24" width="24" xmlns="http://www.w3.org/2000/svg"><path d="m21.1663 5.25h-14.67742l-.2892-1.56175c-.07392-.39905-.41805-.68825-.81906-.68825h-2.96395c-.23011 0-.41667.18889-.41667.42188v.28124c0 .23299.18656.42188.41667.42188h2.73333l2.42801 13.1114c-.35909.3996-.57802.9307-.57802 1.5136 0 1.2426.99493 2.25 2.22222 2.25s2.22219-1.0074 2.22219-2.25c.0005-.3951-.1024-.7832-.298-1.125h5.0405c-.1956.3418-.2984.7299-.298 1.125 0 1.2426.9949 2.25 2.2222 2.25s2.2222-1.0074 2.2222-2.25c0-.6326-.2581-1.2038-.6732-1.6125-.0899-.3601-.4115-.6375-.8085-.6375h-10.27939l-.41666-2.25h11.50625c.3947 0 .7353-.2804.8158-.6717l1.5046-7.31246c.1078-.52397-.2873-1.01584-.8159-1.01584zm-10.833 13.5c0 .6203-.49842 1.125-1.11109 1.125s-1.11111-.5047-1.11111-1.125.49844-1.125 1.11111-1.125 1.11109.5047 1.11109 1.125zm7.7778 1.125c-.6127 0-1.1111-.5047-1.1111-1.125s.4984-1.125 1.1111-1.125 1.1111.5047 1.1111 1.125-.4984 1.125-1.1111 1.125zm1.3248-6.75h-11.48869l-1.25-6.75h14.12759z" fill="#000"/></svg>

<svg width="24" height="24" viewBox="0 0 24 24" fill="none" xmlns="http://www.w3.org/2000/svg">
<path d="M21.1663 5.25H6.48888L6.19968 3.68825C6.12576 3.2892 5.78163 3 5.38062 3H2.41667C2.18656 3 2 3.18889 2 3.42188V3.70312C2 3.93611 2.18656 4.125 2.41667 4.125H5.15L7.57801 17.2364C7.21892 17.636 6.99999 18.1671 6.99999 18.75C6.99999 19.9926 7.99492 21 9.22221 21C10.4495 21 11.4444 19.9926 11.4444 18.75C11.4449 18.3549 11.342 17.9668 11.1464 17.625H16.1869C15.9913 17.9668 15.8885 18.3549 15.8889 18.75C15.8889 19.9926 16.8838 21 18.1111 21C19.3384 21 20.3333 19.9926 20.3333 18.75C20.3333 18.1174 20.0752 17.5462 19.6601 17.1375C19.5702 16.7774 19.2486 16.5 18.8516 16.5H8.57221L8.15555 14.25H19.6618C20.0565 14.25 20.3971 13.9696 20.4776 13.5783L21.9822 6.26584C22.09 5.74187 21.6949 5.25 21.1663 5.25ZM10.3333 18.75C10.3333 19.3703 9.83488 19.875 9.22221 19.875C8.60954 19.875 8.1111 19.3703 8.1111 18.75C8.1111 18.1297 8.60954 17.625 9.22221 17.625C9.83488 17.625 10.3333 18.1297 10.3333 18.75ZM18.1111 19.875C17.4984 19.875 17 19.3703 17 18.75C17 18.1297 17.4984 17.625 18.1111 17.625C18.7238 17.625 19.2222 18.1297 19.2222 18.75C19.2222 19.3703 18.7238 19.875 18.1111 19.875ZM19.4359 13.125H7.94721L6.69721 6.375H20.8248L19.4359 13.125V13.125Z" fill="black"/>
</svg>
